X: 451
T: Bugün Biz Hep Neş`eliyiz
C: Nev´eser Kökdeş
O: Turkey
F: http://compmusic.upf.edu/node/140
N: kurdilihicazkar--fantezi--aksak--bugun_biz--neveser_kokdes
N: makam= kurdilihicazkar
N: form= fantezi
N: usul= aksak = 9/8
M: 9/8
L: 1/16
K: C _B _e _A 
Q: 1/4=216
%%MIDI tuningsystem comma53
cd_1/4ef g2g2 _1/4abg2 abg2 z2 | f2 _1/4efd2 c2dc BAG4z2  | 
w:  ARANAĞME  |   | 
cd_1/4ef g2g2 _1/4abg2 abg2 z2 | f2 _1/4efd2 c2dc Bcd6  | 
w:  ARANAĞME  |   | 
c4 _7/8dcB2 dcB2 _1/4e2f2 g2 | _7/8ag f_1/4e_7/8dc B_1/4AB8-B2  | \
w:   |   | 
_1/4AcB2 AcB2 _A4 A3G F2 | 
w:   | 
G6 ABG4z6  | g4 g2b_1/4a g4 g6 | f3_1/4ef2 g2e2 f2d4dc  | \
w:   |  *  Bu gün  *  biz  hep   |  neş *  e *  li *  yiz    | 
c4 g2b_1/4a g4 g6 | 
w:  *  Bu gün  *  biz  hep   | 
f3_1/4ef2 g2e2 f2d4dc  | c4 d2_1/4e2 g2f2 _e2d2 c2 | \
w:  neş *  e *  li *  yiz    |  *  Şen len di  *  yü  | 
c4_7/8d2 c2B2 _1/4A2B6  | 
w:  rek le *  ri *  miz    | 
_1/4A2B2 A2B2 c4 _A3G F2 | G8G2 ABG4z2  | \
w:  Sev dâ  do lu  i çi  |  miz   SAZ  | 
z4 c2d2 d4 g6 | d4ed c2B2 A2G4z2  | 
w:  Eğ len ce siz   |  ya şa *  *  ma *  yız    | 
f2_1/4e2 f2g2 =a2g2 f2e2 ed | d6 f2_1/4e2 ^d2e6  | \
w:  Bu  zevk ten  ay rı *  la *  ma  |  yız   SAZ  | 
z4 c2_1/4e2 e4 g6 | f3_1/4ag2 f2_1/4e2 ^d2e6  | 
w:  Bur da  her  gün   |  nağ *  me  *  çağ *  lar    | 
z4 d2_1/4e2 g4 f2_e2 d2 | d4e4dc _1/4Bcd6  | \
w:  Kal bi miz de   |  ha tı ra *  *  *  lar    | 
z4 f2g2 g4 e3d c2 | 
w:  A teş len sin   | 
B4c2 d2B2 AGF4z2  | z4 d2dc B4 A3G F2 | \
w:  sev dâ *  lı *  *  lar    |  O  tat *  lı  an  | 
G12z6  | cd_1/4ef g2g2 _1/4abg2 abg2 z2 | 
w:  lar    |  ARANAĞME  | 
f2 _1/4efd2 c2dc BAG4z2  | cd_1/4ef g2g2 _1/4abg2 abg2 z2 | 
w:   |  ARANAĞME  | 
f2 _1/4efd2 c2dc Bcd6  | c4 _7/8dcB2 dcB2 _1/4e2f2 g2 | \
w:   |   | 
_7/8ag f_1/4e_7/8dc B_1/4AB8-B2  | 
w:   | 
_1/4AcB2 AcB2 _A4 A3G F2 | G6 ABG4z6  | \
w:   |   | 
g4 g2b_1/4a g4 g6 | 
w:  *  Bu gün  *  biz  hep   | 
f3_1/4ef2 g2e2 f2d4dc  | c4 g2b_1/4a g4 g6 | \
w:  neş *  e *  li *  yiz    |  *  Bu gün  *  biz  hep   | 
f3_1/4ef2 g2e2 f2d4dc  | 
w:  neş *  e *  li *  yiz    | 
c4 d2_1/4e2 g2f2 _e2d2 c2 | c4_7/8d2 c2B2 _1/4A2B6  | \
w:  *  Şen len di  *  yü  |  rek le *  ri *  miz    | 
_1/4A2B2 A2B2 c4 _A3G F2 | 
w:  Sev dâ  do lu  i çi  | 
G8G2 ABG4z2  | z4 c2d2 d4 g6 | d4ed c2B2 A2G4z2  | \
w:  miz   SAZ  |  Eğ len ce siz   |  ya şa *  *  ma *  yız    | 
f2_1/4e2 f2g2 =a2g2 f2e2 ed | 
w:  Bu  zevk ten  ay rı *  la *  ma  | 
d6 f2_1/4e2 ^d2e6  | z4 c2_1/4e2 e4 g6 | \
w:  yız   SAZ  |  Bur da  her  gün   | 
f3_1/4ag2 f2_1/4e2 ^d2e6  | z4 d2_1/4e2 g4 f2_e2 d2 | 
w:  nağ *  me  *  çağ *  lar    |  Kal bi miz de   | 
d4e4dc _1/4Bcd6  | z4 f2g2 g4 e3d c2 | \
w:  ha tı ra *  *  *  lar    |  A teş len sin   | 
B4c2 d2B2 AGF4z2  | 
w:  sev dâ *  lı *  *  lar    | 
z4 d2dc B4 A3G F2 | G12z6  | |


